X:1
T:Something to Be Done
T:Something to Be Done
T:Charles Hutchinson Gabriel, 1898
T:Mary D. Chellis, 1873
T:Public Domain Courtesy of the Cyber Hymnal™
T:Public Domain Courtesy of the Cyber Hymnal™
C:Charles Hutchinson Gabriel, 1898
Z:Public Domain
Z:Courtesy of the Cyber Hymnal™
%%score ( 1 2 ) 3
L:1/8
Q:1/4=95
M:4/4
K:F
V:1 treble 
V:2 treble 
V:3 bass 
V:1
 F[FG] | [FA][FA][FA][FA] [FA]2 z [FB] | [Fc][Fc][Fc][Fc] [Fc]2 F[FG] | %3
w: 1.~There’s a|bat- tle to be fought, A|vict- ’ry to be gained; There’s a|
w: 2.~There’s an|en- e- my a- broad, So|sub- tle and so strong, That the|
w: 3.~We’re re-|cruit- ing for the ranks, For|years and years to come, That our|
 [FA][FA][FA][FA] [Fc]2 z [FA] | [EB][FA][CG][DF] [EG]2 ||"^Refrain" [EA][EG] | %6
w: coun- try to be saved, A|host from sin re- claimed.||
w: con- flict must be fierce, The|strug- gle must be long.|Yes, there’s|
w: num- ber may not fail Ere|tri- umph shall be won.||
 F<[CF] [DF]>[DF] [CF]2 z2 | [FA]<[FA] [FA]>[FA] [FA]2 [FA][FB] | %8
w: ||
w: some- thing to be done!|Some- thing to be done! Let us|
w: ||
 [Fc][Fc][Fc][Fc] [Fd][Fc][GB][FA] | [FA][EG] [EG]>[^D^F] [EG]2 [EA][CG] | %10
w: ||
w: then no long- er waste the pre- cious|mo- ments as they fly! Oh, there’s|
w: ||
 [CF]<[CF] [DF]>[DF] [CF]2 z [_EA] | [DB]<[DB] [DB]>[Ec] !fermata![Fd]2 [Fe][Fd] | %12
w: ||
w: some- thing to be done! There’s|some- thing to be done! There are|
w: ||
 [Fc][Fc] [Ec]>[Gc] [Fc]2 z F | [FA]<[FA] [EG]>[CG] [CF]2 |] %14
w: ||
w: pre- cious souls to save, there’s|some- thing to be done!|
w: ||
V:2
 F x | x8 | x6 F x | x8 | x6 || x2 | F/ x15/2 | x8 | x8 | x8 | x8 | x8 | x7 F | x6 |] %14
V:3
 [F,A,][F,B,] | [F,C][F,C][F,C][F,C] [F,C]2 z [F,G,] | %2
 [F,A,][F,A,][F,A,][F,A,] [F,A,]2 [F,A,][F,B,] | [F,C][F,C][F,C][F,C] [F,A,]2 z [F,C] | %4
 [G,C][F,C][E,C][D,=B,] [C,C]2 || [C,C][C,B,] | [F,A,]<[F,A,] [F,B,]>[F,B,] [F,A,]2 z2 | %7
 [F,C]<[F,C] [F,C]>[F,C] [F,C]2 [F,C][F,G,] | [F,A,][F,A,][F,A,][F,A,] [F,B,][F,A,][E,C][F,C] | %9
 [C,C][C,C] [C,C]>[C,C] [C,C]2 [C,C][C,B,] | [F,A,]<[F,A,] [F,B,]>[F,B,] [F,A,]2 z [F,C] | %11
 [B,,B,]<[B,,B,] [B,,B,]>[B,,B,] [B,,B,]2 [B,,C][B,,B,] | %12
 [F,A,][F,A,] [C,G,]>[C,B,] [F,A,]2 z [F,A,] | [C,C]<[C,C] [C,B,]>[C,B,] [F,,A,]2 |] %14

